X:1
T:Title
%%score { ( 1 4 ) | ( 2 3 ) }
L:1/8
M:4/4
K:D
V:1 treble nm="Grand Piano"
V:4 treble 
V:2 bass 
V:3 bass 
V:1
 z4 z2[Q:1/4=108] [A,FA]2 | [DFA]3 [A,DF] [DFA]2 [DAd]2 | [EGc]6 [CE]F | [EG]3 [CE] [CA]2 [EG]2 | %4
[M:3/4] F6 |[M:1/4] FG |[M:4/4] [DFA]3 [A,DF] [DFA]2 [Fd]2 | [Gc]6 [Gc][Fd] | %8
 [Ee]3 [FA] [Ec]2 [DB]2 |[M:3/4] [CA]6 |[M:1/4] [GA]2 |[M:4/4] [Fd]3 [FA] [GB]2 [FA]2 | %12
 [FA]3 [EG] [DF]2 [DF]2 | [EG]3 [DF] [CE]2 [EG]2 |[M:3/4] [A,DF]3 [A,EG] [A,FA]2 |[M:1/4] [DFA]2 | %16
[M:4/4] [GB]6 z2 | [Fd]6 z2 | d2 d2 [Ec]3 [Gc] |[M:3/4] [Fd]6 |] %20
V:2
 z4 z2 D,2 | D,3 D, D,2 F,2 | A,6 z D | [A,,A,]3 [A,,A,] [A,,A,]2 [A,,A,]2 |[M:3/4] [D,A,D]6 | %5
[M:1/4] DE |[M:4/4] D,3 D, D,2 [D,A,]2 | [E,A,]6 A,-[D,A,] | [C,A,]3 [D,A,] [E,A,]2 [E,^G,]2 | %9
[M:3/4] [A,,A,]6 |[M:1/4] [C,A,]2 |[M:4/4] [D,A,]3 [D,A,] [D,D]2 [D,D]2 | %12
 [D,A,]3 [D,A,] [D,A,]2 [D,A,]2 | [A,,A,]3 [A,,A,] [A,,A,]2 [A,,A,]2 |[M:3/4] D,3 D, D,2 | %15
[M:1/4] D,2 |[M:4/4] G,2 G,2 G,2 [E,A,]2 | [D,A,]2 D,2 D,2[K:treble] [G,B,G]2 | %18
 [A,F]2 [A,F]2[K:bass] [A,,A,]3 [A,,A,] |[M:3/4] [D,A,]6 |] %20
V:3
 x8 | x8 | z4 z2 A,2 | x8 |[M:3/4] x6 |[M:1/4] [D,A,]2 |[M:4/4] x8 | z4 z2 .E,2 | x8 |[M:3/4] x6 | %10
[M:1/4] x2 |[M:4/4] x8 | x8 | x8 |[M:3/4] x6 |[M:1/4] x2 |[M:4/4] x8 | x6[K:treble] x2 | %18
 x4[K:bass] x4 |[M:3/4] x6 |] %20
V:4
 x8 | x8 | x8 | x8 |[M:3/4] x6 |[M:1/4] x2 |[M:4/4] x8 | x8 | x8 |[M:3/4] x6 |[M:1/4] x2 | %11
[M:4/4] x8 | x8 | x8 |[M:3/4] x6 |[M:1/4] x2 |[M:4/4] D2 D2 D2 [Gc]2 | z2 A,2 A,2 e2 | x8 | %19
[M:3/4] x6 |] %20

